X: 10422
T: VICTORIA VALSE Part 2.
C: Arranged by W. B. Laybourn
R: waltz
B: K\"ohler's Violin Repository, v.1, 1885 p.42 #2
F: http://www.archive.org/details/klersviolinrepos01edin
Z: 2011 John Chambers <jc:trillian.mit.edu>
M: 3/4
L: 1/8
K: G
(udc) |\
B2 "^Pizz."[D2G,2] [D2G,2] | B2 "^Pizz."[D2G,2] [D2G,2] | B2 "^Pizz."[D2G,2] [D2G,2] | vd^ced=cB |\
c2 "^Pizz."[E2G,2] [E2G,2] | c2 "^Pizz."[E2G,2] [E2G,2] | c2 "^Pizz."[E2G,2] [E2G,2] | vcBdcB^A |
B2 "^Pizz."[D2G,2] [D2G,2] | B2 "^Pizz."[D2G,2] [D2G,2] | B2 "^Pizz."[D2G,2] [D2G,2] | d^ced=cB |\
c2 "^Pizz."[E2G,2] [E2G,2] | c2 "^Pizz."[E2G,2] [E2G,2] | cBdcBA | G4 :|
(uBc) |\
(d4 c2 ) | (e4 d2) | b6 | (b4 c'2) |\
(b4 a2) | (e4 f2) | gfgabg | d4 (Bc) |
(d4 c2) | (e4 d2) | b6 | (b4 c'2) |\
(b4 a2) | (e4 f2) | g2 {a}g>fg>a "_D.C."| g2 "_Fine"z2 |]

%%sep 2 1 500

